X: 9674
T: Deálaí's
R: slide
M: 12/8
K: Dmajor
|:dcB|A2 d dcd B2 A F2 E|D2 F AGF G2 F EE/F/G|
Add dcd BAA FGA|B2 ^A B2 c d3:|
|:cc/d/e|f2 d- dcd g2 e- e^de|f2 d dcd e2 A A2 a|
fdd dcd gee e^de|B2 ^A B2 c d3:|

